X: 35
T: JIG: Cook in the Kitchen
C: C: Trad.; S: Various
C: Set Leaders: Tania, Anton
Z: Anton Zille ed., Oleg Naumov arr.; JACKB at The Session
N: https://thesession.org/members/26966/sets/92421
R: Jig
M: 6/8
L: 1/8
Q: 3/8=116
K: Gmaj
|:E|"G"DGG GAG|"D"FDE "F"=F3|"G"DGG GFG|"D"A2 d "C"cAG|
"G"DGG GAG|"D"FDE "F"=F2 d|"C"cAG "D"FGA|"G"BGG G2:||
|:A|"G"B3 BAG|"D"A3 AGF|"G"G3 GFG|"D"A2 d "C"cAG|
"G"B3 BAG|"D"A3 A2 d|"C"cAG "D"FGA|"G"BGG G2:||
|:B|"D"d2 e f2 g|"D"a2 g fed|"C"cAG "D/B"FGA|"G"B/c/dB "C"cAG|
"D"d2 e f2 g|"D"a2 g fed|"C"cAG "D/B"FGA|"G"BGG "(D)"G2:||

